X: 7627
T: Coir A' Cheathaich
R: waltz
M: 3/4
K: Aminor
A A>A|A2 G>AA>B|c2 c>Ac>A|G2 E>AA>G|G3A A>c|G2 E>AA>B|
c3 c c>d|e2 e>ge>d|d4 c>d|e2 d>cd>c|B2 AG A>B|
c2 B>AA>G|E3 A A>A|A2 GA c>d|d2 cd e>g|e2 d>cB>A|A3:|

